X: 1
T: Merrily Kiss the Quaker
C: Trad
R: jig
M: 6/8
L: 1/8
K: Gmaj
D|:"G"GAB D2B| "C"c2A "G"BAG|GAB DEG| "D"A3-A D|
"G"GAB D2B| "C"c2A "G"BAG|GAB "D"D2E|[1 "G"G3-G2 D:|[2 "G"G3-G2 A] |
|:"G"BGG "C"AGG| "G"BGG "C"AGE| "G"GAB DEG| "D"A3-AGA|
"G"BGG "C"AGG|"G"BGG "C"AGE| "G"GAB "D"D2 E|[1 "G"G3-G2 A:|[2 "G"G3-G2 d] |
|:"G"g3 "D"aga| "G"bge dBd| g2 g gab| "D"a3-aba|
"Em"g3 "Bm"f3| "C"ege "G"dBA| "C"GAB "D"D2E|[1 "G"G3-G2 d :|[2 "G"G3-G2 D]|
